rendimentus/src/assests/card.svg

<svg aria-hidden="true" focusable="false" data-prefix="far" data-icon="credit-card" class="svg-inline--fa fa-credit-card fa-w-18" role="img" xmlns="http://www.w3.org/2000/svg" viewBox="0 0 576 512"><path fill="currentColor" d="M527.9 32H48.1C21.5 32 0 53.5 0 80v352c0 26.5 21.5 48 48.1 48h479.8c26.6 0 48.1-21.5 48.1-48V80c0-26.5-21.5-48-48.1-48zM54.1 80h467.8c3.3 0 6 2.7 6 6v42H48.1V86c0-3.3 2.7-6 6-6zm467.8 352H54.1c-3.3 0-6-2.7-6-6V256h479.8v170c0 3.3-2.7 6-6 6zM192 332v40c0 6.6-5.4 12-12 12h-72c-6.6 0-12-5.4-12-12v-40c0-6.6 5.4-12 12-12h72c6.6 0 12 5.4 12 12zm192 0v40c0 6.6-5.4 12-12 12H236c-6.6 0-12-5.4-12-12v-40c0-6.6 5.4-12 12-12h136c6.6 0 12 5.4 12 12z"></path></svg>

<svg viewBox="0 0 576 512" xmlns="http://www.w3.org/2000/svg" xmlns:xlink="http://www.w3.org/1999/xlink" overflow="hidden"><path d="M527.9 32 48.1 32C21.5 32 0 53.5 0 80L0 432C0 458.5 21.5 480 48.1 480L527.9 480C554.5 480 576 458.5 576 432L576 80C576 53.5 554.5 32 527.9 32ZM54.1 80 521.9 80C525.2 80 527.9 82.7 527.9 86L527.9 128 48.1 128 48.1 86C48.1 82.7 50.8 80 54.1 80ZM521.9 432 54.1 432C50.8 432 48.1 429.3 48.1 426L48.1 256 527.9 256 527.9 426C527.9 429.3 525.2 432 521.9 432ZM192 332 192 372C192 378.6 186.6 384 180 384L108 384C101.4 384 96 378.6 96 372L96 332C96 325.4 101.4 320 108 320L180 320C186.6 320 192 325.4 192 332ZM384 332 384 372C384 378.6 378.6 384 372 384L236 384C229.4 384 224 378.6 224 372L224 332C224 325.4 229.4 320 236 320L372 320C378.6 320 384 325.4 384 332Z" fill="#FFFFFF"/></svg>
